svgs/sharp-regular/outdent.svg

<svg xmlns="http://www.w3.org/2000/svg" viewBox="0 0 448 512"><!--! Font Awesome Pro 6.6.0 by @fontawesome - https://fontawesome.com License - https://fontawesome.com/license (Commercial License) Copyright 2024 Fonticons, Inc. --><path d="M0 40l24 0 400 0 24 0 0 48-24 0L24 88 0 88 0 40zM192 168l24 0 208 0 24 0 0 48-24 0-208 0-24 0 0-48zm24 128l208 0 24 0 0 48-24 0-208 0-24 0 0-48 24 0zM0 424l24 0 400 0 24 0 0 48-24 0L24 472 0 472l0-48zm128-72L0 256l128-96 0 192z"/></svg>

<svg xmlns="http://www.w3.org/2000/svg" viewBox="0 0 448 512"><!--! Font Awesome Pro 6.4.2 by @fontawesome - https://fontawesome.com License - https://fontawesome.com/license (Commercial License) Copyright 2023 Fonticons, Inc. --><path d="M0 40H24 424h24V88H424 24 0V40zM192 168h24H424h24v48H424 216 192V168zm24 128H424h24v48H424 216 192V296h24zM0 424H24 424h24v48H424 24 0V424zm128-72L0 256l128-96V352z"/></svg>
